X:42
T:Rejnlnder
R:reinlander
S:http://www.dafo.dk/spillemand/
N:n102
B:Frederik Vilhelm Lind - Gullestrup 1867-95
O:Danmark
Z:<anamnese@laposte.net>
M:2/4
L:1/16
Q:1/4=135
K:G
Bc | d2c'2c2a2 | B2g2 gdAF | F2e2 edcA | G2Bc dcBc |
     d2c'2c2a2 | B2g2 gdAF | F2e2 edcA | G2GF G2 :||:
FG | A2de fed2 | B2ef gfed | /.../
